X: 41148
T: Triplet
R: hornpipe
M: 4/4
K: Amajor
|:ED|(3CDE (3DCB, A,CEA|(3GAB (3AGF EGBd|ceAe (3aed (3cBA|(3Bcd (3cBA (3GFE (3DCB,
(3CDE (3DCB, A,CEA|(3GAB (3AGF EGBd|(3ced (3cBA (3GFE (3DCB,|A2 a2 A2:|
|:GA|(3BcB (3AGF EGBd|Aceg aecA|(3fed (3edc (3dcB (3cBA|(3Bcd (3cBA (3GFE (3DCB,|
(3CDE (3DCB, A,CEA|(3GAB (3AGF EGBd|(3ced (3cBA (3GFE (3DCB,|A2 a2 A2:|

